X:1
T:Title
%%score { ( 1 3 5 ) | ( 2 4 ) }
L:1/8
M:6/8
K:Bb
V:1 treble nm="Grand Piano"
V:3 treble 
V:5 treble 
V:2 bass 
V:4 bass 
V:1
 z3 z2[Q:1/4=84] E | G^FG BAB | [Ge][Bd][_Ac] [GB]2 E | GGG B_AG |[M:5/8] [DF]-[DF]- [DF]3 | %5
[M:1/8] E |[M:3/4] G^F GB AB | [Ge][Bd] [_Ac] [GB]2 G | FA ce dc | [DB]6[K:bass] | G^F G c2 G | %11
 B6 | G^F G c2 G |[M:5/8] _A-A- A3 |[M:1/8] [EG] |[M:3/4] [DF][DF] [EG][F_A] [EG][DF] | %16
[M:7/8] EGB e3 [E^Fc] |[M:3/4] [EGB][EGB] [E_Ac] [B,EG]2 [_A,DF] |[M:5/8] E-E- E3 |] %19
V:2
 z3 z2 [E,G,] | [E,B,E][E,A,E][E,B,E] [E,G,E][E,^F,E][E,G,E] | [E,B,][E,E][E,E] [E,E]2 [E,G,] | %3
 [E,B,E][E,B,E][E,B,E] [E,DE][E,CE][E,B,E] |[M:5/8] B,3 z2 |[M:1/8] [E,G,] | %6
[M:3/4] [E,B,E][E,A,E] [E,B,E][E,G,E] [E,^F,E][E,G,E] | [E,B,][E,E] [E,E] [E,E]2 [E,B,E] | %8
 [F,B,D][F,CE] [F,A,E][F,A,E] [F,B,F][F,,A,E] | B,2 z2 z2 | %10
 [E,B,E][E,A,E] [E,B,E] [E,G,E]2 [E,B,E] | [E,G,E]2 [F,_A,] .[G,B,]3 | %12
 [E,B,E][E,A,E] [E,B,E] [E,G,E]2 [E,B,E] |[M:5/8] [F,B,D]2 [F,B,] [B,,B,]2 |[M:1/8] [B,,B,] | %15
[M:3/4] [B,,B,][B,,B,] [B,,B,][B,,B,] [B,,B,][B,,_A,] | %16
[M:7/8] [E,G,][E,B,E][E,_DE] [_A,,CE]3 =A,, |[M:3/4] B,,B,, B,, B,,2 B,, |[M:5/8] z2 _A, G,2 |] %19
V:3
 x6 | x6 | x6 | x6 |[M:5/8] z z2 _A,2 |[M:1/8] x |[M:3/4] x6 | x6 | x6 | z2[K:bass] B,4 | x6 | %11
 z2 D .E3 | x6 |[M:5/8] z2 D D2 |[M:1/8] x |[M:3/4] x6 |[M:7/8] x7 |[M:3/4] x6 | %18
[M:5/8] G,2 C B,2 |] %19
V:4
 x6 | x6 | x6 | x6 |[M:5/8] B,,-B,,- B,,3 |[M:1/8] x |[M:3/4] x6 | x6 | x6 | B,,6 | x6 | x6 | x6 | %13
[M:5/8] x5 |[M:1/8] x |[M:3/4] x6 |[M:7/8] x7 |[M:3/4] x6 |[M:5/8] E,-E,- E,3 |] %19
V:5
 x6 | x6 | x6 | x6 |[M:5/8] x5 |[M:1/8] x |[M:3/4] x6 | x6 | x6 | z C[K:bass] z _A, G,F, | x6 | %11
 x6 | x6 |[M:5/8] x5 |[M:1/8] x |[M:3/4] x6 |[M:7/8] x7 |[M:3/4] x6 |[M:5/8] x5 |] %19

